build/images/slider/face.svg

<svg width="100" height="98" viewBox="0 0 100 98" fill="none" xmlns="http://www.w3.org/2000/svg" xmlns:xlink="http://www.w3.org/1999/xlink">
<path d="M57.9967 9.69649C60.3982 9.69649 62.3449 7.74971 62.3449 5.34824C62.3449 2.94676 60.3982 1 57.9967 1C55.5952 1 53.6484 2.94676 53.6484 5.34824C53.6484 7.74971 55.5952 9.69649 57.9967 9.69649Z" stroke="#F5C845" stroke-width="0.7574" stroke-miterlimit="10"/>
<path opacity="0.41" d="M50.9185 97.5128C76.0726 97.5128 96.464 77.1214 96.464 51.9673C96.464 26.8133 76.0726 6.42188 50.9185 6.42188C25.7644 6.42188 5.37305 26.8133 5.37305 51.9673C5.37305 77.1214 25.7644 97.5128 50.9185 97.5128Z" fill="#EDEDED"/>
<path d="M50.9188 91.7576C72.8937 91.7576 90.7078 73.9435 90.7078 51.9687C90.7078 29.9938 72.8937 12.1797 50.9188 12.1797C28.944 12.1797 11.1299 29.9938 11.1299 51.9687C11.1299 73.9435 28.944 91.7576 50.9188 91.7576Z" fill="#EDEDED"/>
<rect x="15.5781" y="16.5254" width="73.2285" height="76.4897" fill="url(#pattern0)"/>
<path d="M83.7911 51.9703C83.7911 33.8237 69.0787 19.1113 50.9322 19.1113C32.7856 19.1113 18.0732 33.8237 18.0732 51.9703C18.0732 69.1039 31.1921 83.1739 47.9304 84.6933L50.9322 88.1769V88.1892V88.1769L53.8969 84.6933C70.6475 83.1986 83.7911 69.1162 83.7911 51.9703Z" fill="white"/>
<path d="M40.1226 51.3116C40.9686 51.3116 41.6544 50.6258 41.6544 49.7798C41.6544 48.9338 40.9686 48.248 40.1226 48.248C39.2766 48.248 38.5908 48.9338 38.5908 49.7798C38.5908 50.6258 39.2766 51.3116 40.1226 51.3116Z" fill="#E6BAB9"/>
<path d="M63.4449 51.3116C64.2908 51.3116 64.9766 50.6258 64.9766 49.7798C64.9766 48.9338 64.2908 48.248 63.4449 48.248C62.5989 48.248 61.9131 48.9338 61.9131 49.7798C61.9131 50.6258 62.5989 51.3116 63.4449 51.3116Z" fill="#E6BAB9"/>
<path d="M51.8088 74.9418H51.5988C45.3606 74.9418 40.2588 69.84 40.2588 63.6018V49.26C40.2588 43.0217 45.3606 37.9199 51.5988 37.9199H51.8088C58.0471 37.9199 63.1489 43.0217 63.1489 49.26V63.6018C63.1489 69.84 58.0471 74.9418 51.8088 74.9418Z" fill="#E6D3B9"/>
<path d="M54.8103 50.4228H54.7856C54.1679 50.4228 53.6738 49.9163 53.6738 49.311V47.9028C53.6738 47.2851 54.1803 46.791 54.7856 46.791H54.8103C55.4279 46.791 55.9221 47.2975 55.9221 47.9028V49.311C55.9221 49.9163 55.4156 50.4228 54.8103 50.4228Z" fill="black"/>
<path opacity="0.38" d="M54.5752 48.8911C54.3034 48.8911 54.0811 48.6687 54.0811 48.4093V47.804C54.0811 47.5446 54.3034 47.3223 54.5628 47.3223H54.5752C54.8346 47.3223 55.0569 47.5446 55.0569 47.804V48.4093C55.0569 48.6811 54.8346 48.8911 54.5752 48.8911Z" fill="white"/>
<path d="M38.8877 56.3765V65.9006C38.8877 72.6453 44.4095 78.1671 51.1542 78.1671H51.3766C58.1213 78.1671 63.6431 72.6453 63.6431 65.9006V56.3765C63.6431 54.8447 62.4078 53.6094 60.876 53.6094H41.6548C40.123 53.6094 38.8877 54.8447 38.8877 56.3765Z" fill="#EC7D31"/>
<path d="M60.8627 53.6113H59.0221C59.195 53.9449 59.2939 54.3031 59.2939 54.6984V63.012C59.2939 68.892 54.4762 73.7096 48.5962 73.7096H48.3985C44.4456 73.7096 40.9991 71.5355 39.1338 68.3361C40.2703 73.9196 45.2362 78.1567 51.1532 78.1567H51.3756C58.1203 78.1567 63.6421 72.6349 63.6421 65.8902V56.366C63.6421 54.8466 62.3945 53.6113 60.8627 53.6113Z" fill="#E76631"/>
<path d="M46.9907 57.2773C46.5954 57.2773 46.2865 57.6356 46.373 58.0185C46.8054 60.1185 48.6583 61.6873 50.8819 61.6873C53.1054 61.6873 54.9583 60.1062 55.3907 58.0185C55.4648 57.6356 55.1683 57.2773 54.773 57.2773H46.9907Z" fill="#98262F"/>
<path opacity="0.15" d="M52.4258 46.0863C52.4258 45.7281 52.7223 45.4316 53.0805 45.4316H55.4029C55.7611 45.4316 56.0576 45.7281 56.0576 46.0863C56.0576 46.4446 55.7611 46.7411 55.4029 46.7411H53.0805C52.7223 46.7411 52.4258 46.4446 52.4258 46.0863Z" fill="black"/>
<path d="M52.4258 45.3559C52.4258 44.9976 52.7223 44.7012 53.0805 44.7012H55.4029C55.7611 44.7012 56.0576 44.9976 56.0576 45.3559C56.0576 45.7141 55.7611 46.0106 55.4029 46.0106H53.0805C52.7223 46.0106 52.4258 45.7141 52.4258 45.3559Z" fill="#EC7D31"/>
<path d="M49.5107 54.7967C50.3294 54.7967 50.993 54.1331 50.993 53.3144C50.993 52.4957 50.3294 51.832 49.5107 51.832C48.692 51.832 48.0283 52.4957 48.0283 53.3144C48.0283 54.1331 48.692 54.7967 49.5107 54.7967Z" fill="#E6C0AF"/>
<path d="M50.5362 53.6838C49.9186 54.215 48.9797 54.1409 48.4362 53.5233C48.288 53.338 48.1891 53.1403 48.1274 52.918C48.0039 53.375 48.1027 53.8815 48.4362 54.2644C48.9674 54.8821 49.9062 54.9562 50.5362 54.425C50.9809 54.0421 51.1415 53.4615 51.0056 52.9303C50.9315 53.2268 50.7709 53.4862 50.5362 53.6838Z" fill="#E6A8B8"/>
<path d="M54.1059 57.3281H47.6823C47.3611 57.3281 47.1017 57.6246 47.1758 57.9458V57.9581C47.2376 58.2546 47.497 58.4646 47.7935 58.4646H54.007C54.3035 58.4646 54.5629 58.2546 54.6247 57.9581V57.9458C54.6865 57.6246 54.4394 57.3281 54.1059 57.3281Z" fill="white"/>
<path d="M60.0479 48.521C60.0479 49.4475 60.8014 50.201 61.7279 50.201C62.3455 50.201 62.889 49.8551 63.1855 49.3486V49.2498C63.1855 46.2357 61.9873 43.4933 60.0479 41.4551V48.521Z" fill="#E76631"/>
<path d="M43.3593 48.3706C43.3593 49.2971 42.6058 50.0506 41.6793 50.0506C41.0617 50.0506 40.5182 49.7047 40.2217 49.1982V49.0994C40.2217 46.0853 41.4199 43.3429 43.3593 41.3047V48.3706Z" fill="#E76631"/>
<path d="M57.8983 44.3198H44.7918C41.8023 44.3198 39.3564 41.874 39.3564 38.8845V33.4492H57.9106C60.9 33.4492 63.3459 35.8951 63.3459 38.8845C63.3459 41.874 60.8877 44.3198 57.8983 44.3198Z" fill="#EC7D31"/>
<path d="M57.8612 42.2693H44.7546C41.7652 42.2693 39.3193 39.8234 39.3193 36.834V38.8846C39.3193 41.874 41.7652 44.3199 44.7546 44.3199H57.8612C60.8506 44.3199 63.2965 41.874 63.2965 38.8846C63.2965 38.5387 63.2594 38.1928 63.1977 37.8593C62.7159 40.3546 60.5047 42.2693 57.8612 42.2693Z" fill="#E76631"/>
<path d="M45.4959 50.4228H45.4711C44.8535 50.4228 44.3594 49.9163 44.3594 49.311V47.9028C44.3594 47.2851 44.8658 46.791 45.4711 46.791H45.4959C46.1135 46.791 46.6076 47.2975 46.6076 47.9028V49.311C46.6076 49.9163 46.1011 50.4228 45.4959 50.4228Z" fill="black"/>
<path opacity="0.38" d="M45.1748 48.8911C44.903 48.8911 44.6807 48.6687 44.6807 48.4093V47.804C44.6807 47.5446 44.903 47.3223 45.1624 47.3223H45.1748C45.4342 47.3223 45.6565 47.5446 45.6565 47.804V48.4093C45.6565 48.6811 45.4465 48.8911 45.1748 48.8911Z" fill="white"/>
<path opacity="0.15" d="M42.8652 46.0863C42.8652 45.7281 43.1617 45.4316 43.5199 45.4316H45.8423C46.2005 45.4316 46.497 45.7281 46.497 46.0863C46.497 46.4446 46.2005 46.7411 45.8423 46.7411H43.5199C43.1617 46.7411 42.8652 46.4446 42.8652 46.0863Z" fill="black"/>
<path d="M42.8652 45.3559C42.8652 44.9976 43.1617 44.7012 43.5199 44.7012H45.8423C46.2005 44.7012 46.497 44.9976 46.497 45.3559C46.497 45.7141 46.2005 46.0106 45.8423 46.0106H43.5199C43.1617 46.0106 42.8652 45.7141 42.8652 45.3559Z" fill="#EC7D31"/>
<path opacity="0.3" d="M59.3803 68.0886H43.4697C37.6514 68.0886 32.8955 63.3327 32.8955 57.5145V37.0332H69.9545V57.5145C69.9545 63.3327 65.1986 68.0886 59.3803 68.0886Z" fill="#F7DCB6"/>
<path d="M64.7908 37.17H37.7254C36.8731 37.17 36.1689 36.4659 36.1689 35.6136V31.1541C36.1689 30.3018 36.8731 29.5977 37.7254 29.5977H64.7908C65.6432 29.5977 66.3473 30.3018 66.3473 31.1541V35.6136C66.3473 36.4659 65.6432 37.17 64.7908 37.17Z" fill="#49A39B"/>
<path opacity="0.43" d="M36.1689 33.4648V35.1325C36.1689 35.9848 36.8731 36.689 37.7254 36.689H64.7908C65.6432 36.689 66.3473 35.9848 66.3473 35.1325V33.4648H36.1689Z" fill="#2B6C9B"/>
<path d="M68.0521 39.0593H34.7855C33.7479 39.0593 32.8955 38.207 32.8955 37.1693C32.8955 36.1317 33.7479 35.2793 34.7855 35.2793H68.0521C69.0898 35.2793 69.9421 36.1317 69.9421 37.1693C69.9545 38.207 69.1021 39.0593 68.0521 39.0593Z" fill="#49A39B"/>
<path d="M5.37296 64.2225C7.78807 64.2225 9.74591 62.2646 9.74591 59.8495C9.74591 57.4344 7.78807 55.4766 5.37296 55.4766C2.95784 55.4766 1 57.4344 1 59.8495C1 62.2646 2.95784 64.2225 5.37296 64.2225Z" stroke="#F5C845" stroke-width="0.2543" stroke-miterlimit="10"/>
<path d="M96.4767 48.0764C97.8753 48.0764 99.0091 46.9427 99.0091 45.5441C99.0091 44.1455 97.8753 43.0117 96.4767 43.0117C95.0781 43.0117 93.9443 44.1455 93.9443 45.5441C93.9443 46.9427 95.0781 48.0764 96.4767 48.0764Z" stroke="#F5C845" stroke-width="0.9335" stroke-miterlimit="10"/>
<path d="M83.0729 20.5287C83.8575 20.5287 84.4935 19.8927 84.4935 19.1081C84.4935 18.3235 83.8575 17.6875 83.0729 17.6875C82.2884 17.6875 81.6523 18.3235 81.6523 19.1081C81.6523 19.8927 82.2884 20.5287 83.0729 20.5287Z" fill="#F5C845"/>
<path d="M25.744 15.1813C27.4018 15.1813 28.7457 13.8373 28.7457 12.1795C28.7457 10.5217 27.4018 9.17773 25.744 9.17773C24.0861 9.17773 22.7422 10.5217 22.7422 12.1795C22.7422 13.8373 24.0861 15.1813 25.744 15.1813Z" fill="#F5C845"/>
<path d="M15.0582 30.4738C16.0201 30.4738 16.7999 29.694 16.7999 28.732C16.7999 27.7701 16.0201 26.9902 15.0582 26.9902C14.0962 26.9902 13.3164 27.7701 13.3164 28.732C13.3164 29.694 14.0962 30.4738 15.0582 30.4738Z" fill="#F5C845"/>
<defs>
<pattern id="pattern0" patternContentUnits="objectBoundingBox" width="1" height="1">
<use xlink:href="#image0"/>
</pattern>
<image id="image0" xlink:href="data:image/png;base64,iVBORw0KGgoAAAANSUhEUgAAAPoAAAEHCAYAAACHl1tOAAAACXBIWXMAAC4jAAAuIwF4pT92AAAA"/>
</defs>
</svg>

<svg width="100" height="98" viewBox="0 0 100 98" fill="none" xmlns="http://www.w3.org/2000/svg" xmlns:xlink="http://www.w3.org/1999/xlink"><path d="M57.997 9.696a4.348 4.348 0 100-8.696 4.348 4.348 0 000 8.696z" stroke="#F5C845" stroke-width=".757" stroke-miterlimit="10"/><path opacity=".41" d="M50.919 97.513c25.154 0 45.545-20.392 45.545-45.546S76.073 6.422 50.919 6.422c-25.155 0-45.546 20.391-45.546 45.545 0 25.154 20.391 45.546 45.546 45.546z" fill="#EDEDED"/><path d="M50.919 91.758c21.975 0 39.789-17.814 39.789-39.79 0-21.974-17.814-39.788-39.79-39.788-21.974 0-39.788 17.814-39.788 39.789 0 21.974 17.814 39.789 39.789 39.789z" fill="#EDEDED"/><path fill="url(#pattern0)" d="M15.578 16.525h73.228v76.49H15.578z"/><path d="M83.791 51.97c0-18.146-14.712-32.859-32.859-32.859-18.146 0-32.859 14.713-32.859 32.86 0 17.133 13.12 31.203 29.857 32.722l3.002 3.484v.012-.012l2.965-3.484C70.647 83.2 83.79 69.116 83.79 51.97z" fill="#fff"/><path d="M40.123 51.312a1.532 1.532 0 100-3.064 1.532 1.532 0 000 3.064zm23.322 0a1.532 1.532 0 100-3.064 1.532 1.532 0 000 3.064z" fill="#E6BAB9"/><path d="M51.809 74.942h-.21c-6.238 0-11.34-5.102-11.34-11.34V49.26c0-6.238 5.102-11.34 11.34-11.34h.21c6.238 0 11.34 5.102 11.34 11.34v14.342c0 6.238-5.102 11.34-11.34 11.34z" fill="#E6D3B9"/><path d="M54.81 50.423h-.024a1.115 1.115 0 01-1.112-1.112v-1.408c0-.618.506-1.112 1.112-1.112h.024c.618 0 1.112.507 1.112 1.112v1.408c0 .605-.506 1.112-1.112 1.112z" fill="#000"/><path opacity=".38" d="M54.575 48.891a.493.493 0 01-.494-.482v-.605a.49.49 0 01.482-.482h.012a.49.49 0 01.482.482v.605a.482.482 0 01-.482.482z" fill="#fff"/><path d="M38.888 56.377V65.9c0 6.744 5.522 12.266 12.266 12.266h.223c6.744 0 12.266-5.522 12.266-12.266v-9.524a2.763 2.763 0 00-2.767-2.768H41.655a2.763 2.763 0 00-2.767 2.767z" fill="#EC7D31"/><path d="M60.863 53.611h-1.84c.172.334.27.692.27 1.087v8.314c0 5.88-4.817 10.698-10.697 10.698H48.4c-3.953 0-7.4-2.174-9.265-5.374 1.136 5.584 6.102 9.82 12.02 9.82h.222c6.744 0 12.266-5.521 12.266-12.266v-9.524c0-1.52-1.248-2.755-2.78-2.755z" fill="#E76631"/><path d="M46.99 57.277c-.395 0-.704.359-.617.742a4.599 4.599 0 004.509 3.668 4.611 4.611 0 004.509-3.668.626.626 0 00-.618-.742h-7.782z" fill="#98262F"/><path opacity=".15" d="M52.426 46.086a.66.66 0 01.654-.654h2.323a.66.66 0 01.655.654.66.66 0 01-.655.655H53.08a.66.66 0 01-.655-.655z" fill="#000"/><path d="M52.426 45.356c0-.358.296-.655.654-.655h2.323a.66.66 0 01.655.655.66.66 0 01-.655.655H53.08a.66.66 0 01-.655-.655z" fill="#EC7D31"/><path d="M49.51 54.797a1.482 1.482 0 100-2.965 1.482 1.482 0 000 2.965z" fill="#E6C0AF"/><path d="M50.536 53.684a1.5 1.5 0 01-2.1-.16 1.657 1.657 0 01-.309-.606c-.123.457-.024.964.31 1.346.53.618 1.47.692 2.1.161a1.48 1.48 0 00.469-1.495 1.428 1.428 0 01-.47.754z" fill="#E6A8B8"/><path d="M54.106 57.328h-6.424a.513.513 0 00-.506.618v.012a.633.633 0 00.617.507h6.214c.297 0 .556-.21.618-.507v-.012a.521.521 0 00-.52-.618z" fill="#fff"/><path d="M60.048 48.521c0 .926.753 1.68 1.68 1.68.617 0 1.161-.346 1.457-.852v-.1c0-3.013-1.198-5.756-3.137-7.794v7.066zM43.36 48.37c0 .927-.754 1.68-1.68 1.68a1.698 1.698 0 01-1.458-.852V49.1c0-3.014 1.198-5.756 3.137-7.794v7.066z" fill="#E76631"/><path d="M57.898 44.32H44.792c-2.99 0-5.436-2.446-5.436-5.435v-5.436h18.555c2.989 0 5.435 2.446 5.435 5.436 0 2.989-2.458 5.435-5.448 5.435z" fill="#EC7D31"/><path d="M57.861 42.27H44.755c-2.99 0-5.436-2.447-5.436-5.436v2.05c0 2.99 2.446 5.436 5.436 5.436H57.86c2.99 0 5.436-2.446 5.436-5.435a5.66 5.66 0 00-.1-1.026c-.481 2.496-2.692 4.41-5.336 4.41z" fill="#E76631"/><path d="M45.496 50.423h-.025a1.115 1.115 0 01-1.112-1.112v-1.408c0-.618.507-1.112 1.112-1.112h.025c.617 0 1.112.507 1.112 1.112v1.408c0 .605-.507 1.112-1.112 1.112z" fill="#000"/><path opacity=".38" d="M45.175 48.891a.493.493 0 01-.494-.482v-.605a.49.49 0 01.481-.482h.013a.49.49 0 01.482.482v.605c0 .272-.21.482-.482.482z" fill="#fff"/><path opacity=".15" d="M42.865 46.086a.66.66 0 01.655-.654h2.322a.66.66 0 01.655.654.66.66 0 01-.655.655H43.52a.66.66 0 01-.655-.655z" fill="#000"/><path d="M42.865 45.356a.66.66 0 01.655-.655h2.322a.66.66 0 01.655.655.66.66 0 01-.655.655H43.52a.66.66 0 01-.655-.655z" fill="#EC7D31"/><path opacity=".3" d="M59.38 68.089H43.47c-5.819 0-10.575-4.756-10.575-10.575v-20.48h37.06v20.48c0 5.819-4.756 10.575-10.575 10.575z" fill="#F7DCB6"/><path d="M64.79 37.17H37.726a1.566 1.566 0 01-1.556-1.556v-4.46c0-.852.704-1.556 1.556-1.556h27.066c.852 0 1.556.704 1.556 1.556v4.46c0 .852-.704 1.556-1.556 1.556z" fill="#49A39B"/><path opacity=".43" d="M36.169 33.465v1.667c0 .853.704 1.557 1.556 1.557h27.066c.852 0 1.556-.704 1.556-1.556v-1.668H36.17z" fill="#2B6C9B"/><path d="M68.052 39.06H34.785a1.898 1.898 0 01-1.89-1.89c0-1.038.853-1.89 1.89-1.89h33.267c1.038 0 1.89.852 1.89 1.89.013 1.037-.84 1.89-1.89 1.89z" fill="#49A39B"/><path d="M5.373 64.222a4.373 4.373 0 100-8.746 4.373 4.373 0 000 8.746z" stroke="#F5C845" stroke-width=".254" stroke-miterlimit="10"/><path d="M96.477 48.076a2.532 2.532 0 100-5.064 2.532 2.532 0 000 5.064z" stroke="#F5C845" stroke-width=".933" stroke-miterlimit="10"/><path d="M83.073 20.529a1.42 1.42 0 100-2.841 1.42 1.42 0 000 2.84zm-57.329-5.348a3.002 3.002 0 100-6.003 3.002 3.002 0 000 6.003zM15.058 30.474a1.742 1.742 0 100-3.484 1.742 1.742 0 000 3.484z" fill="#F5C845"/><defs><pattern id="pattern0" patternContentUnits="objectBoundingBox" width="1" height="1"><use xlink:href="#image0"/></pattern><image id="image0" xlink:href="data:image/png;base64,iVBORw0KGgoAAAANSUhEUgAAAPoAAAEHCAYAAACHl1tOAAAACXBIWXMAAC4jAAAuIwF4pT92AAAA"/></defs></svg>
